symbols/web/reduce_capacity/materialsymbolsoutlined/reduce_capacity_wght100_40px.svg

<svg xmlns="http://www.w3.org/2000/svg" height="40" width="40"><path d="M30.083 8.833q-.958 0-1.583-.645-.625-.646-.625-1.563 0-.917.646-1.562.646-.646 1.562-.646.917 0 1.563.646.646.645.646 1.562t-.646 1.563q-.646.645-1.563.645Zm-3 6.625v.084q0-.709-.166-1.188-.167-.479-.459-.896.792-.333 1.73-.5.937-.166 1.895-.166 1.125 0 2.167.229 1.042.229 2 .646.625.291.979.75.354.458.354 1.125v-.084ZM9.917 8.833q-.959 0-1.584-.645-.625-.646-.625-1.563 0-.917.646-1.562.646-.646 1.563-.646.916 0 1.562.646.646.645.646 1.562t-.646 1.563q-.646.645-1.562.645Zm-5.5 6.625v.084q0-.667.354-1.125.354-.459.979-.75.958-.417 2-.646 1.042-.229 2.167-.229.958 0 1.937.166.979.167 1.729.5-.291.417-.479.896-.187.479-.187 1.188v-.084ZM20 8.833q-.958 0-1.583-.645-.625-.646-.625-1.563 0-.917.646-1.562.645-.646 1.562-.646t1.562.646q.646.645.646 1.562t-.646 1.563q-.645.645-1.562.645Zm-5.5 6.625v.084q0-.667.354-1.125.354-.459.979-.75.959-.417 2-.646 1.042-.229 2.167-.229 1.125 0 2.167.229 1.041.229 2 .646.625.291.979.75.354.458.354 1.125v-.084Zm13.833 13.5q-.958 0-1.583-.646-.625-.645-.625-1.562t.646-1.562q.646-.646 1.562-.646.917 0 1.563.646.646.645.646 1.562 0 .958-.646 1.583t-1.563.625Zm-5.5 6.625v.084q0-.709.355-1.167.354-.458.979-.708.958-.459 2-.667 1.041-.208 2.166-.208t2.167.208q1.042.208 2 .667.625.25.979.708.354.458.354 1.167v-.084Zm-11.166-6.625q-.959 0-1.584-.646-.625-.645-.625-1.562t.646-1.562q.646-.646 1.563-.646.916 0 1.562.646.646.645.646 1.562 0 .958-.646 1.583t-1.562.625Zm-5.5 6.625v.084q0-.709.354-1.167.354-.458.979-.708.958-.459 2-.667 1.042-.208 2.167-.208 1.125 0 2.166.208 1.042.208 2 .667.625.25.979.708.355.458.355 1.167v-.084ZM20 25.667l-4-4 .75-.75 2.708 2.75v-4.625h1.084v4.625l2.708-2.75.75.75Z"/></svg>

<svg xmlns="http://www.w3.org/2000/svg" height="40" width="40"><path d="M30.083 8.833Q29.125 8.833 28.5 8.188Q27.875 7.542 27.875 6.625Q27.875 5.708 28.521 5.063Q29.167 4.417 30.083 4.417Q31 4.417 31.646 5.063Q32.292 5.708 32.292 6.625Q32.292 7.542 31.646 8.188Q31 8.833 30.083 8.833ZM27.083 15.458V15.542Q27.083 14.833 26.917 14.354Q26.75 13.875 26.458 13.458Q27.25 13.125 28.188 12.958Q29.125 12.792 30.083 12.792Q31.208 12.792 32.25 13.021Q33.292 13.25 34.25 13.667Q34.875 13.958 35.229 14.417Q35.583 14.875 35.583 15.542V15.458ZM9.917 8.833Q8.958 8.833 8.333 8.188Q7.708 7.542 7.708 6.625Q7.708 5.708 8.354 5.063Q9 4.417 9.917 4.417Q10.833 4.417 11.479 5.063Q12.125 5.708 12.125 6.625Q12.125 7.542 11.479 8.188Q10.833 8.833 9.917 8.833ZM4.417 15.458V15.542Q4.417 14.875 4.771 14.417Q5.125 13.958 5.75 13.667Q6.708 13.25 7.75 13.021Q8.792 12.792 9.917 12.792Q10.875 12.792 11.854 12.958Q12.833 13.125 13.583 13.458Q13.292 13.875 13.104 14.354Q12.917 14.833 12.917 15.542V15.458ZM20 8.833Q19.042 8.833 18.417 8.188Q17.792 7.542 17.792 6.625Q17.792 5.708 18.438 5.063Q19.083 4.417 20 4.417Q20.917 4.417 21.562 5.063Q22.208 5.708 22.208 6.625Q22.208 7.542 21.562 8.188Q20.917 8.833 20 8.833ZM14.5 15.458V15.542Q14.5 14.875 14.854 14.417Q15.208 13.958 15.833 13.667Q16.792 13.25 17.833 13.021Q18.875 12.792 20 12.792Q21.125 12.792 22.167 13.021Q23.208 13.25 24.167 13.667Q24.792 13.958 25.146 14.417Q25.5 14.875 25.5 15.542V15.458ZM28.333 28.958Q27.375 28.958 26.75 28.312Q26.125 27.667 26.125 26.75Q26.125 25.833 26.771 25.188Q27.417 24.542 28.333 24.542Q29.25 24.542 29.896 25.188Q30.542 25.833 30.542 26.75Q30.542 27.708 29.896 28.333Q29.25 28.958 28.333 28.958ZM22.833 35.583V35.667Q22.833 34.958 23.188 34.5Q23.542 34.042 24.167 33.792Q25.125 33.333 26.167 33.125Q27.208 32.917 28.333 32.917Q29.458 32.917 30.5 33.125Q31.542 33.333 32.5 33.792Q33.125 34.042 33.479 34.5Q33.833 34.958 33.833 35.667V35.583ZM11.667 28.958Q10.708 28.958 10.083 28.312Q9.458 27.667 9.458 26.75Q9.458 25.833 10.104 25.188Q10.75 24.542 11.667 24.542Q12.583 24.542 13.229 25.188Q13.875 25.833 13.875 26.75Q13.875 27.708 13.229 28.333Q12.583 28.958 11.667 28.958ZM6.167 35.583V35.667Q6.167 34.958 6.521 34.5Q6.875 34.042 7.5 33.792Q8.458 33.333 9.5 33.125Q10.542 32.917 11.667 32.917Q12.792 32.917 13.833 33.125Q14.875 33.333 15.833 33.792Q16.458 34.042 16.812 34.5Q17.167 34.958 17.167 35.667V35.583ZM20 25.667 16 21.667 16.75 20.917 19.458 23.667V19.042H20.542V23.667L23.25 20.917L24 21.667Z"/></svg>
